X: 10282
M: C|
L: 1/8
K: F
(uc>B) |\
.A>.c "_>"f4 (a>f) | .e>.g "_>"b4 (g>a) | .b>.g(a>f) .g>.f(e>f) | .g>.e "_>"c4 (c>B) |\
.A>.c "_>"f4 (a>f) | .e>.g "_>"B4 (d>B) | A>(FB)>(G A)>(FG)>E | F2{c}c2 F2 :: (uc>B) |
.A>.c "_>"f4 (a>f) | .e>.g "_>"B4 (d>B) | A>(FB)>(G A)>(FG)>E | F2A2 F2 :|


